images/943044.svg

<?xml version="1.0" encoding="UTF-8"?>
<svg xmlns="http://www.w3.org/2000/svg" xmlns:xlink="http://www.w3.org/1999/xlink" width="300pt" height="300pt" viewBox="0 0 300 300" version="1.1">
<defs>
<g>
<symbol overflow="visible" id="glyph0-0">
<path style="stroke:none;" d="M 0.59375 2.125 L 0.59375 -8.46875 L 6.59375 -8.46875 L 6.59375 2.125 Z M 1.265625 1.453125 L 5.9375 1.453125 L 5.9375 -7.78125 L 1.265625 -7.78125 Z M 1.265625 1.453125 "/>
</symbol>
<symbol overflow="visible" id="glyph0-1">
<path style="stroke:none;" d="M 6.421875 -8.46875 L 6.421875 -7.3125 C 5.972656 -7.519531 5.546875 -7.675781 5.140625 -7.78125 C 4.742188 -7.894531 4.363281 -7.953125 4 -7.953125 C 3.351562 -7.953125 2.851562 -7.828125 2.5 -7.578125 C 2.15625 -7.328125 1.984375 -6.96875 1.984375 -6.5 C 1.984375 -6.113281 2.097656 -5.820312 2.328125 -5.625 C 2.554688 -5.425781 3 -5.269531 3.65625 -5.15625 L 4.359375 -5 C 5.242188 -4.832031 5.894531 -4.535156 6.3125 -4.109375 C 6.738281 -3.691406 6.953125 -3.128906 6.953125 -2.421875 C 6.953125 -1.566406 6.664062 -0.921875 6.09375 -0.484375 C 5.53125 -0.046875 4.695312 0.171875 3.59375 0.171875 C 3.1875 0.171875 2.75 0.125 2.28125 0.03125 C 1.8125 -0.0625 1.328125 -0.203125 0.828125 -0.390625 L 0.828125 -1.609375 C 1.304688 -1.335938 1.773438 -1.132812 2.234375 -1 C 2.703125 -0.863281 3.15625 -0.796875 3.59375 -0.796875 C 4.269531 -0.796875 4.789062 -0.925781 5.15625 -1.1875 C 5.53125 -1.457031 5.71875 -1.835938 5.71875 -2.328125 C 5.71875 -2.753906 5.582031 -3.085938 5.3125 -3.328125 C 5.050781 -3.578125 4.617188 -3.757812 4.015625 -3.875 L 3.296875 -4.015625 C 2.410156 -4.191406 1.769531 -4.46875 1.375 -4.84375 C 0.988281 -5.21875 0.796875 -5.738281 0.796875 -6.40625 C 0.796875 -7.1875 1.066406 -7.796875 1.609375 -8.234375 C 2.148438 -8.679688 2.898438 -8.90625 3.859375 -8.90625 C 4.273438 -8.90625 4.691406 -8.867188 5.109375 -8.796875 C 5.535156 -8.722656 5.972656 -8.613281 6.421875 -8.46875 Z M 6.421875 -8.46875 "/>
</symbol>
<symbol overflow="visible" id="glyph0-2">
<path style="stroke:none;" d="M 1.171875 -8.75 L 2.765625 -8.75 L 6.65625 -1.4375 L 6.65625 -8.75 L 7.796875 -8.75 L 7.796875 0 L 6.203125 0 L 2.328125 -7.3125 L 2.328125 0 L 1.171875 0 Z M 1.171875 -8.75 "/>
</symbol>
<symbol overflow="visible" id="glyph0-3">
<path style="stroke:none;" d="M 1.171875 -8.75 L 2.359375 -8.75 L 2.359375 -5.15625 L 6.65625 -5.15625 L 6.65625 -8.75 L 7.84375 -8.75 L 7.84375 0 L 6.65625 0 L 6.65625 -4.171875 L 2.359375 -4.171875 L 2.359375 0 L 1.171875 0 Z M 1.171875 -8.75 "/>
</symbol>
<symbol overflow="visible" id="glyph1-0">
<path style="stroke:none;" d="M 0.5 1.765625 L 0.5 -7.046875 L 5.5 -7.046875 L 5.5 1.765625 Z M 1.0625 1.21875 L 4.9375 1.21875 L 4.9375 -6.484375 L 1.0625 -6.484375 Z M 1.0625 1.21875 "/>
</symbol>
<symbol overflow="visible" id="glyph1-1">
<path style="stroke:none;" d="M 1.921875 -0.828125 L 5.359375 -0.828125 L 5.359375 0 L 0.734375 0 L 0.734375 -0.828125 C 1.109375 -1.210938 1.617188 -1.734375 2.265625 -2.390625 C 2.910156 -3.046875 3.316406 -3.46875 3.484375 -3.65625 C 3.796875 -4.007812 4.015625 -4.304688 4.140625 -4.546875 C 4.265625 -4.796875 4.328125 -5.039062 4.328125 -5.28125 C 4.328125 -5.664062 4.191406 -5.976562 3.921875 -6.21875 C 3.648438 -6.46875 3.296875 -6.59375 2.859375 -6.59375 C 2.546875 -6.59375 2.21875 -6.535156 1.875 -6.421875 C 1.539062 -6.316406 1.175781 -6.15625 0.78125 -5.9375 L 0.78125 -6.9375 C 1.175781 -7.09375 1.546875 -7.210938 1.890625 -7.296875 C 2.234375 -7.378906 2.550781 -7.421875 2.84375 -7.421875 C 3.59375 -7.421875 4.191406 -7.234375 4.640625 -6.859375 C 5.097656 -6.484375 5.328125 -5.976562 5.328125 -5.34375 C 5.328125 -5.039062 5.269531 -4.753906 5.15625 -4.484375 C 5.039062 -4.222656 4.835938 -3.910156 4.546875 -3.546875 C 4.460938 -3.453125 4.203125 -3.175781 3.765625 -2.71875 C 3.328125 -2.269531 2.710938 -1.640625 1.921875 -0.828125 Z M 1.921875 -0.828125 "/>
</symbol>
</g>
</defs>
<g id="surface41593">
<rect x="0" y="0" width="300" height="300" style="fill:rgb(100%,100%,100%);fill-opacity:1;stroke:none;"/>
<path style="fill:none;stroke-width:1.2;stroke-linecap:butt;stroke-linejoin:miter;stroke:rgb(0%,0%,0%);stroke-opacity:1;stroke-miterlimit:10;" d="M 264.75 150.910156 L 262.226562 180.28125 "/>
<path style="fill:none;stroke-width:1.2;stroke-linecap:butt;stroke-linejoin:miter;stroke:rgb(0%,0%,0%);stroke-opacity:1;stroke-miterlimit:10;" d="M 257.585938 153.253906 L 255.570312 176.75 "/>
<path style="fill:none;stroke-width:1.2;stroke-linecap:butt;stroke-linejoin:miter;stroke:rgb(0%,0%,0%);stroke-opacity:1;stroke-miterlimit:10;" d="M 240.578125 134.042969 L 264.75 150.910156 "/>
<path style="fill:none;stroke-width:1.2;stroke-linecap:butt;stroke-linejoin:miter;stroke:rgb(0%,0%,0%);stroke-opacity:1;stroke-miterlimit:10;" d="M 262.226562 180.28125 L 235.53125 192.777344 "/>
<path style="fill:none;stroke-width:1.2;stroke-linecap:butt;stroke-linejoin:miter;stroke:rgb(0%,0%,0%);stroke-opacity:1;stroke-miterlimit:10;" d="M 235.53125 192.777344 L 211.359375 175.910156 "/>
<path style="fill:none;stroke-width:1.2;stroke-linecap:butt;stroke-linejoin:miter;stroke:rgb(0%,0%,0%);stroke-opacity:1;stroke-miterlimit:10;" d="M 237.085938 185.402344 L 217.746094 171.910156 "/>
<path style="fill:none;stroke-width:1.2;stroke-linecap:butt;stroke-linejoin:miter;stroke:rgb(0%,0%,0%);stroke-opacity:1;stroke-miterlimit:10;" d="M 211.359375 175.910156 L 213.882812 146.542969 "/>
<path style="fill:none;stroke-width:1.2;stroke-linecap:butt;stroke-linejoin:miter;stroke:rgb(0%,0%,0%);stroke-opacity:1;stroke-miterlimit:10;" d="M 211.359375 175.910156 L 184.667969 188.410156 "/>
<path style="fill:none;stroke-width:1.2;stroke-linecap:butt;stroke-linejoin:miter;stroke:rgb(0%,0%,0%);stroke-opacity:1;stroke-miterlimit:10;" d="M 213.882812 146.542969 L 240.578125 134.042969 "/>
<path style="fill:none;stroke-width:1.2;stroke-linecap:butt;stroke-linejoin:miter;stroke:rgb(0%,0%,0%);stroke-opacity:1;stroke-miterlimit:10;" d="M 219.496094 151.574219 L 240.851562 141.574219 "/>
<path style="fill:none;stroke-width:1.2;stroke-linecap:butt;stroke-linejoin:miter;stroke:rgb(0%,0%,0%);stroke-opacity:1;stroke-miterlimit:10;" d="M 184.667969 188.410156 L 160.496094 171.539062 "/>
<path style="fill:none;stroke-width:1.2;stroke-linecap:butt;stroke-linejoin:miter;stroke:rgb(0%,0%,0%);stroke-opacity:1;stroke-miterlimit:10;" d="M 160.496094 171.539062 L 147.148438 177.789062 "/>
<path style="fill:none;stroke-width:1.2;stroke-linecap:butt;stroke-linejoin:miter;stroke:rgb(80%,80%,0%);stroke-opacity:1;stroke-miterlimit:10;" d="M 147.148438 177.789062 L 133.800781 184.039062 "/>
<path style="fill:none;stroke-width:1.2;stroke-linecap:butt;stroke-linejoin:miter;stroke:rgb(80%,80%,0%);stroke-opacity:1;stroke-miterlimit:10;" d="M 133.800781 184.039062 L 121.714844 175.605469 "/>
<path style="fill:none;stroke-width:1.2;stroke-linecap:butt;stroke-linejoin:miter;stroke:rgb(0%,0%,0%);stroke-opacity:1;stroke-miterlimit:10;" d="M 121.714844 175.605469 L 109.628906 167.171875 "/>
<path style=" stroke:none;fill-rule:nonzero;fill:rgb(100%,100%,100%);fill-opacity:1;" d="M 129.800781 177.039062 L 137.800781 177.039062 L 137.800781 191.039062 L 129.800781 191.039062 Z M 129.800781 177.039062 "/>
<g style="fill:rgb(80%,80%,0%);fill-opacity:1;">
  <use xlink:href="#glyph0-1" x="129.800781" y="188.177734"/>
</g>
<path style="fill:none;stroke-width:1.2;stroke-linecap:butt;stroke-linejoin:miter;stroke:rgb(0%,0%,0%);stroke-opacity:1;stroke-miterlimit:10;" d="M 109.628906 167.171875 L 110.890625 152.488281 "/>
<path style="fill:none;stroke-width:1.2;stroke-linecap:butt;stroke-linejoin:miter;stroke:rgb(0%,0%,100%);stroke-opacity:1;stroke-miterlimit:10;" d="M 110.890625 152.488281 L 112.152344 137.804688 "/>
<path style="fill:none;stroke-width:1.2;stroke-linecap:butt;stroke-linejoin:miter;stroke:rgb(0%,0%,0%);stroke-opacity:1;stroke-miterlimit:10;" d="M 102.972656 163.640625 L 103.980469 151.894531 "/>
<path style="fill:none;stroke-width:1.2;stroke-linecap:butt;stroke-linejoin:miter;stroke:rgb(0%,0%,100%);stroke-opacity:1;stroke-miterlimit:10;" d="M 103.980469 151.894531 L 104.988281 140.148438 "/>
<path style="fill:none;stroke-width:1.2;stroke-linecap:butt;stroke-linejoin:miter;stroke:rgb(0%,0%,0%);stroke-opacity:1;stroke-miterlimit:10;" d="M 82.933594 179.671875 L 109.628906 167.171875 "/>
<path style="fill:none;stroke-width:1.2;stroke-linecap:butt;stroke-linejoin:miter;stroke:rgb(0%,0%,100%);stroke-opacity:1;stroke-miterlimit:10;" d="M 112.152344 137.804688 L 100.066406 129.371094 "/>
<path style="fill:none;stroke-width:1.2;stroke-linecap:butt;stroke-linejoin:miter;stroke:rgb(0%,0%,0%);stroke-opacity:1;stroke-miterlimit:10;" d="M 100.066406 129.371094 L 87.980469 120.933594 "/>
<path style=" stroke:none;fill-rule:nonzero;fill:rgb(100%,100%,100%);fill-opacity:1;" d="M 108.152344 130.804688 L 117.152344 130.804688 L 117.152344 144.804688 L 108.152344 144.804688 Z M 108.152344 130.804688 "/>
<g style="fill:rgb(0%,0%,100%);fill-opacity:1;">
  <use xlink:href="#glyph0-2" x="108.152344" y="141.943359"/>
</g>
<path style="fill:none;stroke-width:1.2;stroke-linecap:butt;stroke-linejoin:miter;stroke:rgb(0%,0%,0%);stroke-opacity:1;stroke-miterlimit:10;" d="M 87.980469 120.933594 L 74.632812 127.183594 "/>
<path style="fill:none;stroke-width:1.2;stroke-linecap:butt;stroke-linejoin:miter;stroke:rgb(0%,0%,100%);stroke-opacity:1;stroke-miterlimit:10;" d="M 74.632812 127.183594 L 61.285156 133.433594 "/>
<path style="fill:none;stroke-width:1.2;stroke-linecap:butt;stroke-linejoin:miter;stroke:rgb(0%,0%,0%);stroke-opacity:1;stroke-miterlimit:10;" d="M 88.25 128.464844 L 77.574219 133.464844 "/>
<path style="fill:none;stroke-width:1.2;stroke-linecap:butt;stroke-linejoin:miter;stroke:rgb(0%,0%,100%);stroke-opacity:1;stroke-miterlimit:10;" d="M 77.574219 133.464844 L 66.894531 138.464844 "/>
<path style="fill:none;stroke-width:1.2;stroke-linecap:butt;stroke-linejoin:miter;stroke:rgb(0%,0%,0%);stroke-opacity:1;stroke-miterlimit:10;" d="M 87.980469 120.933594 L 89.242188 106.25 "/>
<path style="fill:none;stroke-width:1.2;stroke-linecap:butt;stroke-linejoin:miter;stroke:rgb(0%,0%,100%);stroke-opacity:1;stroke-miterlimit:10;" d="M 89.242188 106.25 L 90.503906 91.566406 "/>
<path style="fill:none;stroke-width:1.2;stroke-linecap:butt;stroke-linejoin:miter;stroke:rgb(0%,0%,100%);stroke-opacity:1;stroke-miterlimit:10;" d="M 61.285156 133.433594 L 60.023438 148.117188 "/>
<path style="fill:none;stroke-width:1.2;stroke-linecap:butt;stroke-linejoin:miter;stroke:rgb(0%,0%,0%);stroke-opacity:1;stroke-miterlimit:10;" d="M 60.023438 148.117188 L 58.761719 162.800781 "/>
<path style=" stroke:none;fill-rule:nonzero;fill:rgb(100%,100%,100%);fill-opacity:1;" d="M 57.285156 126.433594 L 66.285156 126.433594 L 66.285156 140.433594 L 57.285156 140.433594 Z M 57.285156 126.433594 "/>
<g style="fill:rgb(0%,0%,100%);fill-opacity:1;">
  <use xlink:href="#glyph0-2" x="57.285156" y="137.572266"/>
</g>
<path style="fill:none;stroke-width:1.2;stroke-linecap:butt;stroke-linejoin:miter;stroke:rgb(0%,0%,0%);stroke-opacity:1;stroke-miterlimit:10;" d="M 58.761719 162.800781 L 82.933594 179.671875 "/>
<path style="fill:none;stroke-width:1.2;stroke-linecap:butt;stroke-linejoin:miter;stroke:rgb(0%,0%,0%);stroke-opacity:1;stroke-miterlimit:10;" d="M 57.210938 170.175781 L 76.546875 183.671875 "/>
<path style="fill:none;stroke-width:1.2;stroke-linecap:butt;stroke-linejoin:miter;stroke:rgb(0%,0%,100%);stroke-opacity:1;stroke-miterlimit:10;" d="M 35.25 180.578125 L 47.007812 171.691406 "/>
<path style="fill:none;stroke-width:1.2;stroke-linecap:butt;stroke-linejoin:miter;stroke:rgb(0%,0%,0%);stroke-opacity:1;stroke-miterlimit:10;" d="M 47.007812 171.691406 L 58.761719 162.800781 "/>
<path style="fill:none;stroke-width:1.2;stroke-linecap:butt;stroke-linejoin:miter;stroke:rgb(0%,0%,0%);stroke-opacity:1;stroke-miterlimit:10;" d="M 82.933594 179.671875 L 78.648438 193.769531 "/>
<path style="fill:none;stroke-width:1.2;stroke-linecap:butt;stroke-linejoin:miter;stroke:rgb(0%,0%,100%);stroke-opacity:1;stroke-miterlimit:10;" d="M 78.648438 193.769531 L 74.359375 207.871094 "/>
<path style="fill:none;stroke-width:1.2;stroke-linecap:butt;stroke-linejoin:miter;stroke:rgb(0%,0%,100%);stroke-opacity:1;stroke-miterlimit:10;" d="M 74.359375 207.871094 L 59.625 208.152344 "/>
<path style="fill:none;stroke-width:1.2;stroke-linecap:butt;stroke-linejoin:miter;stroke:rgb(0%,0%,0%);stroke-opacity:1;stroke-miterlimit:10;" d="M 59.625 208.152344 L 44.890625 208.433594 "/>
<path style=" stroke:none;fill-rule:nonzero;fill:rgb(100%,100%,100%);fill-opacity:1;" d="M 65.359375 200.871094 L 83.359375 200.871094 L 83.359375 214.871094 L 65.359375 214.871094 Z M 65.359375 200.871094 "/>
<g style="fill:rgb(0%,0%,100%);fill-opacity:1;">
  <use xlink:href="#glyph0-2" x="65.359375" y="212.009766"/>
  <use xlink:href="#glyph0-3" x="74.335938" y="212.009766"/>
</g>
<path style="fill:none;stroke-width:1.2;stroke-linecap:butt;stroke-linejoin:miter;stroke:rgb(0%,0%,0%);stroke-opacity:1;stroke-miterlimit:10;" d="M 44.890625 208.433594 L 40.070312 194.503906 "/>
<path style="fill:none;stroke-width:1.2;stroke-linecap:butt;stroke-linejoin:miter;stroke:rgb(0%,0%,100%);stroke-opacity:1;stroke-miterlimit:10;" d="M 40.070312 194.503906 L 35.25 180.578125 "/>
<path style="fill:none;stroke-width:1.2;stroke-linecap:butt;stroke-linejoin:miter;stroke:rgb(0%,0%,0%);stroke-opacity:1;stroke-miterlimit:10;" d="M 50.480469 203.378906 L 46.625 192.238281 "/>
<path style="fill:none;stroke-width:1.2;stroke-linecap:butt;stroke-linejoin:miter;stroke:rgb(0%,0%,100%);stroke-opacity:1;stroke-miterlimit:10;" d="M 46.625 192.238281 L 42.769531 181.09375 "/>
<path style=" stroke:none;fill-rule:nonzero;fill:rgb(100%,100%,100%);fill-opacity:1;" d="M 31.25 173.578125 L 40.25 173.578125 L 40.25 187.578125 L 31.25 187.578125 Z M 31.25 173.578125 "/>
<g style="fill:rgb(0%,0%,100%);fill-opacity:1;">
  <use xlink:href="#glyph0-2" x="31.25" y="184.716797"/>
</g>
<path style=" stroke:none;fill-rule:nonzero;fill:rgb(100%,100%,100%);fill-opacity:1;" d="M 78.503906 82.066406 L 103.503906 82.066406 L 103.503906 101.066406 L 78.503906 101.066406 Z M 78.503906 82.066406 "/>
<g style="fill:rgb(0%,0%,100%);fill-opacity:1;">
  <use xlink:href="#glyph0-2" x="78.503906" y="93.205078"/>
  <use xlink:href="#glyph0-3" x="87.480469" y="93.205078"/>
</g>
<g style="fill:rgb(0%,0%,100%);fill-opacity:1;">
  <use xlink:href="#glyph1-1" x="96.503906" y="98.087891"/>
</g>
</g>
</svg>

<svg xmlns="http://www.w3.org/2000/svg" xmlns:xlink="http://www.w3.org/1999/xlink" width="300pt" height="300pt" viewBox="0 0 300 300"><defs><symbol overflow="visible"><path d="M.594 2.125V-8.47h6V2.126zm.672-.672h4.671V-7.78h-4.67zm0 0"/></symbol><symbol overflow="visible" id="a"><path d="M6.422-8.47v1.158c-.45-.208-.875-.364-1.28-.47-.4-.113-.78-.17-1.142-.17-.648 0-1.148.124-1.5.374-.344.25-.516.61-.516 1.078 0 .387.114.68.344.875.227.2.672.355 1.328.47L4.36-5c.882.168 1.535.465 1.952.89.426.42.64.98.64 1.688 0 .856-.288 1.5-.858 1.938-.563.437-1.4.656-2.5.656-.406 0-.844-.047-1.313-.14C1.814-.064 1.33-.204.83-.392v-1.22c.477.274.945.477 1.406.61.47.137.922.203 1.36.203.676 0 1.195-.13 1.562-.39.375-.27.563-.65.563-1.14 0-.427-.138-.76-.407-1-.262-.25-.696-.43-1.297-.548l-.72-.14c-.886-.176-1.526-.454-1.92-.83-.388-.374-.58-.893-.58-1.56 0-.782.27-1.392.813-1.83.538-.445 1.288-.67 2.25-.67.413 0 .83.038 1.25.108.425.074.863.184 1.312.328zm0 0"/></symbol><symbol overflow="visible" id="b"><path d="M1.172-8.75h1.594l3.89 7.313V-8.75h1.14V0H6.204L2.328-7.313V0H1.172zm0 0"/></symbol><symbol overflow="visible" id="c"><path d="M1.172-8.75H2.36v3.594h4.296V-8.75h1.188V0H6.656v-4.172H2.36V0H1.17zm0 0"/></symbol><symbol overflow="visible"><path d="M.5 1.766v-8.813h5v8.813zm.563-.547h3.875v-7.704H1.063zm0 0"/></symbol><symbol overflow="visible" id="d"><path d="M1.922-.828H5.36V0H.733v-.828c.375-.383.883-.906 1.532-1.563.644-.657 1.05-1.08 1.218-1.266.313-.352.532-.65.657-.89.126-.25.188-.493.188-.735 0-.384-.137-.697-.406-.94-.274-.25-.625-.374-1.063-.374-.313 0-.64.06-.985.172-.336.106-.7.266-1.094.484v-1c.396-.156.767-.273 1.11-.36.344-.08.66-.124.954-.124.75 0 1.347.188 1.797.563.458.376.688.883.688 1.516 0 .305-.058.59-.172.86-.117.26-.32.574-.61.937-.085.094-.343.37-.78.828-.438.45-1.055 1.08-1.844 1.892zm0 0"/></symbol></defs><g><path fill="#fff" d="M0 0h300v300H0z"/><path d="M264.75 150.91l-2.523 29.37M257.586 153.254l-2.016 23.496M240.578 134.043l24.172 16.867M262.227 180.28l-26.696 12.497M235.53 192.777l-24.17-16.867M237.086 185.402l-19.34-13.492M211.36 175.91l2.523-29.367M211.36 175.91l-26.692 12.5M213.883 146.543l26.695-12.5M219.496 151.574l21.356-10M184.668 188.41l-24.172-16.87M160.496 171.54l-13.348 6.25" stroke-width="1.2" stroke="#000" stroke-miterlimit="10" fill="none"/><path d="M147.148 177.79l-13.347 6.25M133.8 184.04l-12.085-8.435" stroke-width="1.2" stroke="#cc0" stroke-miterlimit="10" fill="none"/><path d="M121.715 175.605l-12.086-8.433" stroke-width="1.2" stroke="#000" stroke-miterlimit="10" fill="none"/><path d="M129.8 177.04h8v14h-8zm0 0" fill="#fff"/><use xlink:href="#a" x="129.801" y="188.178" fill="#cc0"/><path d="M109.63 167.172l1.26-14.684" stroke-width="1.2" stroke="#000" stroke-miterlimit="10" fill="none"/><path d="M110.89 152.488l1.262-14.683" stroke-width="1.2" stroke="#00f" stroke-miterlimit="10" fill="none"/><path d="M102.973 163.64l1.007-11.745" stroke-width="1.2" stroke="#000" stroke-miterlimit="10" fill="none"/><path d="M103.98 151.895l1.008-11.747" stroke-width="1.2" stroke="#00f" stroke-miterlimit="10" fill="none"/><path d="M82.934 179.672l26.695-12.5" stroke-width="1.2" stroke="#000" stroke-miterlimit="10" fill="none"/><path d="M112.152 137.805l-12.086-8.434" stroke-width="1.2" stroke="#00f" stroke-miterlimit="10" fill="none"/><path d="M100.066 129.37l-12.086-8.436" stroke-width="1.2" stroke="#000" stroke-miterlimit="10" fill="none"/><path d="M108.152 130.805h9v14h-9zm0 0" fill="#fff"/><use xlink:href="#b" x="108.152" y="141.943" fill="#00f"/><path d="M87.98 120.934l-13.347 6.25" stroke-width="1.2" stroke="#000" stroke-miterlimit="10" fill="none"/><path d="M74.633 127.184l-13.348 6.25" stroke-width="1.2" stroke="#00f" stroke-miterlimit="10" fill="none"/><path d="M88.25 128.465l-10.676 5" stroke-width="1.2" stroke="#000" stroke-miterlimit="10" fill="none"/><path d="M77.574 133.465l-10.68 5" stroke-width="1.2" stroke="#00f" stroke-miterlimit="10" fill="none"/><path d="M87.98 120.934l1.262-14.684" stroke-width="1.2" stroke="#000" stroke-miterlimit="10" fill="none"/><path d="M89.242 106.25l1.262-14.684M61.285 133.434l-1.262 14.683" stroke-width="1.2" stroke="#00f" stroke-miterlimit="10" fill="none"/><path d="M60.023 148.117l-1.26 14.684" stroke-width="1.2" stroke="#000" stroke-miterlimit="10" fill="none"/><path d="M57.285 126.434h9v14h-9zm0 0" fill="#fff"/><use xlink:href="#b" x="57.285" y="137.572" fill="#00f"/><path d="M58.762 162.8l24.172 16.872M57.21 170.176l19.337 13.496" stroke-width="1.2" stroke="#000" stroke-miterlimit="10" fill="none"/><path d="M35.25 180.578l11.758-8.887" stroke-width="1.2" stroke="#00f" stroke-miterlimit="10" fill="none"/><path d="M47.008 171.69l11.754-8.89M82.934 179.672l-4.286 14.098" stroke-width="1.2" stroke="#000" stroke-miterlimit="10" fill="none"/><path d="M78.648 193.77l-4.29 14.1M74.36 207.87l-14.735.282" stroke-width="1.2" stroke="#00f" stroke-miterlimit="10" fill="none"/><path d="M59.625 208.152l-14.734.282" stroke-width="1.2" stroke="#000" stroke-miterlimit="10" fill="none"/><path d="M65.36 200.87h18v14h-18zm0 0" fill="#fff"/><g fill="#00f"><use xlink:href="#b" x="65.359" y="212.01"/><use xlink:href="#c" x="74.336" y="212.01"/></g><path d="M44.89 208.434l-4.82-13.93" stroke-width="1.2" stroke="#000" stroke-miterlimit="10" fill="none"/><path d="M40.07 194.504l-4.82-13.926" stroke-width="1.2" stroke="#00f" stroke-miterlimit="10" fill="none"/><path d="M50.48 203.38l-3.855-11.142" stroke-width="1.2" stroke="#000" stroke-miterlimit="10" fill="none"/><path d="M46.625 192.238l-3.855-11.144" stroke-width="1.2" stroke="#00f" stroke-miterlimit="10" fill="none"/><path d="M31.25 173.578h9v14h-9zm0 0" fill="#fff"/><use xlink:href="#b" x="31.25" y="184.717" fill="#00f"/><path d="M78.504 82.066h25v19h-25zm0 0" fill="#fff"/><g fill="#00f"><use xlink:href="#b" x="78.504" y="93.205"/><use xlink:href="#c" x="87.48" y="93.205"/></g><use xlink:href="#d" x="96.504" y="98.088" fill="#00f"/></g></svg>
